X: 10883
T: WHISTLE OWRE THE LAVE O'T
R: strathspey
B: K\"ohler's Violin Repository, v.1, 1885 p.88 #3
F: http://www.archive.org/details/klersviolinrepos01edin
Z: 2012 John Chambers <jc:trillian.mit.edu>
N: A few long beams broken for readability.
M: C|
L: 1/16
K: G
|:\
v(.G3.D)(.E3.G) (cB)AG [B4G4] | d2ef (g3B) (AG3) [E4C4] |\
(.G3.D)(.E3.G) (cB)AG (Bg3) | GG3 (.B3.G) ([A4D4]G4) :|
vd2ef (g3f) (ed3) [B4G4] | d2ef (g3B) (AG3) [E4C4] |\
d2ef (g3f) e3d Bg3 | GG3 (.B3.G) ([A4D4]G4) |
d2ef (g3f) (ed3) [B4G4] | d2ef (g3B) (AG3) [E4C4] |\
gb3 eg3 dg3 Bg3 | G2AB (d3c) (B3{cB}A) G4 |]

%%sep 2 1 500

